X:54
T: MOHKUEHCHEN MOH WOVON BIST DU SO ROH
N: K0653
O: Europa, Mitteleuropa, Deutschland, Halle
R: Kinder -, Tier - Lied
M: 2/4
L: 1/16
K: F
 | c4A2G2 | F4z2
C2 | c2c2A2G2 | F4z2
C2 | F2A2A2c2 | cBA2G2
F2 | F2A2A2c2 | ccA2G2
AG | F2F2G2G2 | F4z2
c2 | c3BA2F2 | B2d2c2z
A | A2G2AAF2 | G4F2z2

@@@ Tune index: 7391
